X:22
T:Sweet Willie
R:pipe jig
C:Rannie MacLellan
O:Cape Breton Island
S:http://www.cranfordpub.com
D:Some Tasty Tunes, 1999
Z:psc, (re-formatted,updated 9/19/04)
N:http://www.cranfordpub.com/stubbert
H:             Copyrights - Rannie Maclellan (SOCAN)                 
L:1/8
Q:300
M:6/8
K:Ador
Bd|e3 g2f|edB A3|BAB G2 B|g2 f edB|
e3 g2f|edB A3|BAB gdB|ABA A:|
|:fg|a3 A2 g|age edB|d3 g2 f|1edB Gfg|
a3 A2 g|age edB|def gdB|ABA A:|
[2 edB Ggf|e3 g2f|edB A3|BAB gdB|ABA A|]
